X:1
T:You gentlemen of England
T:John Wall Callcott (1766-1821) Accompaniment added by William Horsley (1774-1858)
T:Words by Thomas Campbell (1777-1844) who adapted a song by Martin Parker (1600-1656)
T:You gentlemen of England
T:"The Mariners"
T:Copyright © 
T:Copyright © 
T:Copyright © 
C:John Wall Callcott (1766-1821)
C:Accompaniment added by William Horsley (1774-1858)
Z:Words by Thomas Campbell (1777-1844)
Z:who adapted a song by Martin Parker (1600-1656)
Z:Copyright ©
%%score [ ( 1 2 ) ( 3 4 ) ( 5 6 ) ] { ( 7 9 ) | 8 }
L:1/8
Q:1/4=132
M:4/4
K:Bb
V:1 treble-8 transpose=-12 nm="Counter tenor" snm="A."
V:2 treble-8 transpose=-12 
V:3 treble-8 transpose=-12 nm="Tenor" snm="T."
V:4 treble-8 transpose=-12 
V:5 bass nm="Bass" snm="B."
V:6 bass 
V:7 treble nm="Piano" snm="Pno."
V:9 treble 
V:8 bass 
V:1
"^With animation" b4 | f2 g2 e2 (dc) | d4 d2 f2 | f2 f2 f2 =e2 | f4 !>!c4 | d2 d2 d2 (cB) | %6
w: You|gen- tle- men of _|Eng- land, that|live at home at|ease, Ah|lit- tle do you _|
w: If|e- ne- mies op- *|pose us, when|En- gland is at|wars, With|a- ny fo- reign _|
w: Then|cou- rage all brave _|_ ners and|ne- ver be dis-|mayed; Whilst|we have bold ad- *|
 c2 c2 c2 (BA) | (dc) (BA) A2 G2 | F4 f4 | e2 f2 d2 e2 | (c3 d) c2 f2 | e2 f2 d2 e2 | (d4 c4) | %13
w: think up- on the _|dan- * gers _ of the|seas. Give|ear un- to the|ma- ri- ners and|they will plain- ly|show _|
w: Na- * tions we _|fear _ not _ wounds nor|scars. Our|roar- ing guns shall|teach _ 'em our|va- lour for to|know, _|
w: ven- tu- rers we _|ne'er _ shall _ want a|trade. Our|mer- chants will em-|ploy * us to|fetch them wealth we|know, _|
 z4 c3 c | d4 e3 f | g4 e3 d | c4 d3 e | f4 f3 e | d4 e3 e | (d4 c4) | !fermata!z4 |: %21
w: all the|cares and the|fears, all the|cares and the|fears, all the|cares and the|fears, _||
w: Whilst they|reel on the|keel, whilst they|reel on the|keel, whilst they|reel on the|keel, _||
w: Then be|bold, work for|gold, then be|bold, work for|gold, then be|bold, work for|gold, *||
"^Refrain to be sung initially by solo voices and by chorus in the repeat"!p! f3 e | d2 d2 d2 d2 | %23
w: When the|storm- y winds do|
w: ||
w: ||
 (cBcd) c2 cd | e2 e2 e2 e2 | dcde d2"^cresc." ef | g2 g2 g2 g2 | (fefg f2)!f! ff | %28
w: blow, _ _ _ _ when the|storm- y winds do|blow, _ _ _ _ when the|storm- y winds do|blow, _ _ _ _ when the|
w: |||||
w: |||||
 (gf) (ed) d2 c2 | !fermata!B4 :| %30
w: storm- * y _ winds do|blow.|
w: ||
w: ||
V:2
 x4 | x8 | d3 d x4 | x8 | x8 | x8 | c4 x4 | x8 | x8 | x8 | c4 x4 | x8 | x8 | x8 | x8 | x8 | x8 | %17
w: |||||||||||||||||
w: |||||||||||||||||
w: ||ma- ri|||||||||||||||
 x8 | x8 | x8 | x4 |: x4 | x8 | x8 | x8 | x8 | x8 | x8 | x8 | x4 :| %30
w: |||||||||||||
w: |||||||||||||
w: |||||||||||||
V:3
 d4 | d2 B2 c2 (BA) | B4 B2 d2 | c2 d2 c2 B2 | A4 !>!A4 | B2 B2 B2 (AG) | (F2 A2) A2 (GF) | %7
w: You|gen- tle- men of _|Eng- land, that|live at home at|ease, Ah|lit- tle do you _|think up- on the _|
w: If|e- ne- mies op- *|pose us, when|En- gland is at|wars, With|a- ny fo- reign _|Na- * tions we _|
w: Then|cou- rage all brave _|_ ners and|ne- ver be dis-|mayed; Whilst|we have bold ad- *|ven- tu- rers we _|
 (BA) (GF) F2 =E2 | F4 d4 | c2 d2 B2 c2 | (A3 B) A2 d2 | c2 d2 B2 c2 | (B4 A4) | z4 A3 A | %14
w: dan- * gers _ of the|seas. Give|ear un- to the|ma- ri- ners and|they will plain- ly|show _|all the|
w: fear _ not _ wounds nor|scars. Our|roar- ing guns shall|teach _ 'em our|va- lour for to|know, _|Whilst they|
w: ne'er _ shall _ want a|trade. Our|mer- chants will em-|ploy * us to|fetch them wealth we|know, _|Then be|
 B4 c3 d | e4 c3 B | A4 B3 c | d4 d3 c | B4 c3 c | (B4 A4) | !fermata!z4 |:!p! A3 c | B2 B2 B2 B2 | %23
w: cares and the|fears, all the|cares and the|fears, all the|cares and the|fears, _||When the|storm- y winds do|
w: reel on the|keel, whilst they|reel on the|keel, whilst they|reel on the|keel, _||||
w: bold, work for|gold, then be|bold, work for|gold, then be|bold, work for|gold, *||||
 (AGAB A2) AB | c2 c2 c2 c2 | BABc B2"^cresc." cd | e2 e2 e2 e2 | (dcde d2)!f! dd | %28
w: blow, _ _ _ _ when the|storm- y winds do|blow, _ _ _ _ when the|storm- y winds do|blow, _ _ _ _ when the|
w: |||||
w: |||||
 (ed) (cB) B2 A2 | !fermata!B4 :| %30
w: storm- * y _ winds do|blow.|
w: ||
w: ||
V:4
 x4 | x8 | B3 B x4 | x8 | x8 | x8 | x8 | x8 | x8 | x8 | A4 x4 | x8 | x8 | x8 | x8 | x8 | x8 | x8 | %18
w: ||||||||||||||||||
w: ||||||||||||||||||
w: ||ma- ri||||||||||||||||
 x8 | x8 | x4 |: x4 | x8 | x8 | x8 | x8 | x8 | x8 | x8 | x4 :| %30
w: ||||||||||||
w: ||||||||||||
w: ||||||||||||
V:5
 B,4 | D,2 E,2 C,2 F,2 | B,,4 B,2 B,2 | A,2 B,2 A,2 G,2 | F,4 !>!F,4 | B,,2 D,2 F,2 F,2 | %6
w: You|gen- tle- men of|Eng- land, that|live at home at|ease, Ah|lit- tle do you|
w: If|e- ne- mies op-|pose us, when|En- gland is at|wars, With|a- ny fo- reign|
w: Then|cou- rage all brave|_ ners and|ne- ver be dis-|mayed; Whilst|we have bold ad-|
 (A,,2 C,2) F,2 F,2 | B,,2 D,2 C,2 C,2 | F,4 F,4 | F,2 F,2 F,2 F,2 | (F,3 F,) F,2 F,2 | %11
w: think up- on the|dan- gers of the|seas. Give|ear un- to the|ma- ri- ners and|
w: Na- * tions we|fear not wounds nor|scars. Our|roar- ing guns shall|teach _ 'em our|
w: ven- tu- rers we|ne'er shall want a|trade. Our|mer- chants will em-|ploy * us to|
 F,2 F,2 F,2 F,2 | F,8 | z4 F,3 F, | B,4 B,3 B, | E,4 E,3 E, | F,4 F,3 F, | D,4 D,3 D, | %18
w: they will plain- ly|show|all the|cares and the|fears, all the|cares and the|fears, all the|
w: va- lour for to|know,|Whilst they|reel on the|keel, whilst they|reel on the|keel, whilst they|
w: fetch them wealth we|know,|Then be|bold, work for|gold, then be|bold, work for|gold, then be|
 G,4 E,3 E, | F,8 | !fermata!z4 |:!p! F,3 F, | B,,2 B,,2 (B,,C,) (D,E,) | F,6 F,F, | %24
w: cares and the|fears,||When the|storm- y winds * do _|blow, when the|
w: reel on the|keel,|||||
w: bold, work for|gold,|||||
 C,2 C,2 (C,D,) (E,F,) | G,6"^cresc." G,F, | E,2 E,2 (E,F,) (G,A,) | B,6!f! B,B, | %28
w: storm- y winds _ do _|blow, when the|storm- y winds _ do _|blow, when the|
w: ||||
w: ||||
 E,2 G,2 F,2 F,2 | !fermata!B,,4 :| %30
w: storm- y winds do|blow.|
w: ||
w: ||
V:6
 x4 | x8 | B,,3 B,, x4 | x8 | x8 | x8 | x8 | x8 | x8 | x8 | F,4 x4 | x8 | x8 | x8 | x8 | x8 | x8 | %17
w: |||||||||||||||||
w: |||||||||||||||||
w: ||ma- ri|||||||||||||||
 x8 | x8 | x8 | x4 |: x4 | x8 | x8 | x8 | x8 | x8 | x8 | x8 | x4 :| %30
w: |||||||||||||
w: |||||||||||||
w: |||||||||||||
V:7
 [DB]4 | [DF]2 [B,G]2 [CE]2 ([B,D][A,C]) | [B,D]4 [B,D]2 [DF]2 | [CF]2 [DF]2 [CF]2 [B,=E]2 | %4
 [A,F]4 [A,C]4 | [B,D]2 [B,D]2 [B,D]2 ([A,C][G,B,]) | [F,C]2 [A,C]2 [A,C]2 ([G,B,][F,A,]) | %7
 ([B,D][A,C][G,B,][F,A,]) [F,A,]2 [=E,G,]2 | F,4 [DF]4 | E2 F2 D2 E2 | C3 D C2 F2 | E2 F2 D2 E2 | %12
 (D4 C4) | z4 [A,C]3 [A,C] | [B,D]4 [CE]3 [DF] | [EG]4 [CE]3 [B,D] | [A,C]4 [B,D]3 [CE] | %17
 [DF]4 [DF]3 [CE] | [B,D]4 [CE]3 [CE] | ([B,D]4 [A,C]4) | z4 |:!p! [A,F]3 [CE] | %22
 [B,D]2 [B,D]2 [B,D]2 [B,D]2 | ([A,C][G,B,][A,C][B,D]) [A,C]2 [A,C][B,D] | %24
 [CE]2 [CE]2 [CE]2 [CE]2 | ([B,D][A,C][B,D][CE]) [B,D]2 [CE][DF] | [EG]2 [EG]2 [EG]2 [EG]2 | %27
 ([DF][CE][DF][EG] [DF]2)!f! [DF]2 | ([EG][DF][CE][B,D]) [B,D]2 [A,C]2 | !fermata!B,4 :| %30
V:8
 B,4 | D,2 E,2 C,2 F,2 | B,,4 B,2 B,2 | A,2 B,2 A,2 G,2 | F,4 F,4 | B,,2 D,2 F,2 F,2 | %6
 A,,2 C,2 F,2 F,2 | B,,2 D,2 C,2 C,2 | F,4 F,4 | F,2 F,2 F,2 F,2 | F,4 F,2 F,2 | F,2 F,2 F,2 F,2 | %12
 F,8 | z4 F,3 F, | B,4 B,3 B, | E,4 E,3 E, | F,4 F,3 F, | D,4 D,3 D, | G,4 E,4 | F,8 | z4 |: %21
 F,3 F, | B,,2 B,,2 B,,C,D,E, | F,6 F,F, | C,2 C,2 C,D,E,F, | G,6"^cresc." G,F, | %26
 E,2 E,2 E,F,G,A, | B,6!f! B,B, | E,2 G,2 F,2 F,2 | !fermata!B,,4 :| %30
V:9
 x4 | x8 | x8 | x8 | x8 | x8 | x8 | x8 | x8 | C2 D2 B,2 C2 | (A,3 B, A,2) D2 | C2 D2 B,2 C2 | %12
 B,4 A,4 | x8 | x8 | x8 | x8 | x8 | x8 | x8 | x4 |: x4 | x8 | x8 | x8 | x8 | x8 | x8 | x8 | %29
 !fermata!B,4 :| %30

